images_elementary_svg/cmd/sc_calculate.svg

<svg height="16" width="16" xmlns="http://www.w3.org/2000/svg" xmlns:xlink="http://www.w3.org/1999/xlink"><linearGradient id="a" gradientTransform="matrix(.1892 0 0 .24324 5.46 3.162)" gradientUnits="userSpaceOnUse" x1="24" x2="24" xlink:href="#b" y1="7.556" y2="40.444"/><linearGradient id="b"><stop offset="0" stop-color="#fff"/><stop offset="0" stop-color="#fff" stop-opacity=".235"/><stop offset="1" stop-color="#fff" stop-opacity=".157"/><stop offset="1" stop-color="#fff" stop-opacity=".392"/></linearGradient><linearGradient id="c" gradientTransform="matrix(.25714 0 0 .239 3.83 2.897)" gradientUnits="userSpaceOnUse" x1="25.132" x2="25.132" xlink:href="#d" y1=".985" y2="47.013"/><linearGradient id="d"><stop offset="0" stop-color="#f4f4f4"/><stop offset="1" stop-color="#dbdbdb"/></linearGradient><linearGradient id="e" gradientTransform="matrix(.20764 0 0 .22368 19.106 2.63)" gradientUnits="userSpaceOnUse" x1="-51.786" x2="-51.786" xlink:href="#f" y1="50.786" y2="2.906"/><linearGradient id="f"><stop offset="0" stop-color="#a0a0a0"/><stop offset="1" stop-color="#bebebe"/></linearGradient><linearGradient id="g" gradientTransform="matrix(.1892 0 0 .24324 1.46 .162)" gradientUnits="userSpaceOnUse" x1="24" x2="24" xlink:href="#b" y1="7.556" y2="40.444"/><linearGradient id="h" gradientTransform="matrix(.25714 0 0 .239 -.17 -.103)" gradientUnits="userSpaceOnUse" x1="25.132" x2="25.132" xlink:href="#d" y1=".985" y2="47.013"/><linearGradient id="i" gradientTransform="matrix(.20764 0 0 .22368 15.106 -.37)" gradientUnits="userSpaceOnUse" x1="-51.786" x2="-51.786" xlink:href="#f" y1="50.786" y2="2.906"/><linearGradient id="j" gradientTransform="matrix(.51817 0 0 .361 -1079.953 -1160.217)" gradientUnits="userSpaceOnUse" x1="2100.578" x2="2100.578" y1="3215.147" y2="3256.79"><stop offset="0" stop-color="#64baff"/><stop offset="1" stop-color="#3689e6"/></linearGradient><linearGradient id="k" gradientTransform="matrix(.29115 0 0 .32302 2.122 -5.26)" gradientUnits="userSpaceOnUse" x1="29.556" x2="26.135" y1="28.447" y2="34.107"><stop offset="0" stop-color="#fff"/><stop offset=".004" stop-color="#fff" stop-opacity=".235"/><stop offset=".539" stop-color="#fff" stop-opacity=".157"/><stop offset="1" stop-color="#fff" stop-opacity=".392"/></linearGradient><linearGradient id="l" gradientTransform="matrix(.49412 0 0 .49434 11.832 -6.382)" gradientUnits="userSpaceOnUse" x1="-3.707" x2="-3.707" y1="39.159" y2="23.025"><stop offset="0" stop-color="#fff"/><stop offset=".373" stop-color="#fff" stop-opacity=".235"/><stop offset=".75" stop-color="#fff" stop-opacity=".157"/><stop offset="1" stop-color="#fff" stop-opacity=".392"/></linearGradient><linearGradient id="m" gradientUnits="userSpaceOnUse" x1="8.848872" x2="8.848872" y1="3.921802" y2="14.075938"><stop offset="0" stop-color="#fff"/><stop offset=".5" stop-color="#fff" stop-opacity=".235"/><stop offset=".75" stop-color="#fff" stop-opacity=".157"/><stop offset="1" stop-color="#fff" stop-opacity=".392"/></linearGradient><path d="m1.5.5h9v11h-9z" fill="url(#h)" stroke="url(#i)" stroke-linejoin="round"/><path d="m9.5 10.5h-7v-9h7z" fill="none" stroke="url(#g)" stroke-linecap="round"/><path d="m4 2h7v10h-7z" opacity=".05"/><path d="m5.5 3.5h9v11h-9z" fill="url(#c)" stroke="url(#e)" stroke-linejoin="round"/><path d="m13.5 13.5h-7v-9h7z" fill="none" stroke="url(#a)" stroke-linecap="round"/><g transform="matrix(.6314 0 0 .6314 6.358 5.714)"><path d="m8.5.5v2.02a6.5 6.5 0 0 0 -.5-.02 6.5 6.5 0 0 0 -6.5 6.5 6.5 6.5 0 0 0 6.5 6.5 6.5 6.5 0 0 0 6.48-6h-3.02a3.5 3.5 0 0 1 -3.46 3 3.5 3.5 0 0 1 -3.5-3.5 3.5 3.5 0 0 1 3.5-3.5 3.5 3.5 0 0 1 .5.04v1.96l5-3.5z" fill="url(#j)" opacity=".99"/><g fill="none"><g stroke-width="1.584"><path d="m8.5.5v2.02a6.5 6.5 0 0 0 -.5-.02 6.5 6.5 0 0 0 -6.5 6.5 6.5 6.5 0 0 0 6.5 6.5 6.5 6.5 0 0 0 6.48-6h-3.02a3.5 3.5 0 0 1 -3.46 3 3.5 3.5 0 0 1 -3.5-3.5 3.5 3.5 0 0 1 3.5-3.5 3.5 3.5 0 0 1 .5.04v1.96l5-3.5z" opacity=".5" stroke="#002e99" stroke-linecap="round" stroke-linejoin="round"/><path d="m9.496 5.578v-3.13l2.222 1.56z" opacity=".5" stroke="url(#k)"/><path d="m12.32 10.176a4.49 4.49 0 0 1 -5.392 3.202 4.49 4.49 0 0 1 -3.33-5.315 4.49 4.49 0 0 1 5.232-3.458" opacity=".5" stroke="url(#l)"/></g><ellipse cx="8" cy="9.212" opacity=".99" rx="4" ry="2.472"/><path d="m13.386 10.154a5.506 5.504 0 0 1 -6.446 4.246 5.506 5.504 0 0 1 -4.357-6.372 5.506 5.504 0 0 1 6.3-4.46" opacity=".5" stroke="url(#m)" stroke-width="1.584"/></g></g></svg>

<svg xmlns="http://www.w3.org/2000/svg" xmlns:xlink="http://www.w3.org/1999/xlink" height="16" width="16"><defs><linearGradient gradientTransform="matrix(.1892 0 0 .24324 5.46 3.162)" gradientUnits="userSpaceOnUse" xlink:href="#a" id="p" y2="40.444" x2="24" y1="7.556" x1="24"/><linearGradient id="a"><stop offset="0" stop-color="#fff"/><stop offset="0" stop-color="#fff" stop-opacity=".235"/><stop offset="1" stop-color="#fff" stop-opacity=".157"/><stop offset="1" stop-color="#fff" stop-opacity=".392"/></linearGradient><linearGradient gradientTransform="matrix(.25714 0 0 .239 3.83 2.897)" gradientUnits="userSpaceOnUse" xlink:href="#b" id="n" y2="47.013" x2="25.132" y1=".985" x1="25.132"/><linearGradient id="b"><stop offset="0" stop-color="#f4f4f4"/><stop offset="1" stop-color="#dbdbdb"/></linearGradient><linearGradient gradientTransform="matrix(.20764 0 0 .22368 19.106 2.63)" gradientUnits="userSpaceOnUse" xlink:href="#c" id="o" y2="2.906" x2="-51.786" y1="50.786" x1="-51.786"/><linearGradient id="c"><stop offset="0" stop-color="#a0a0a0"/><stop offset="1" stop-color="#bebebe"/></linearGradient><linearGradient gradientTransform="matrix(.1892 0 0 .24324 1.46 .162)" gradientUnits="userSpaceOnUse" xlink:href="#d" id="m" y2="40.444" x2="24" y1="7.556" x1="24"/><linearGradient id="d"><stop offset="0" stop-color="#fff"/><stop offset="0" stop-color="#fff" stop-opacity=".235"/><stop offset="1" stop-color="#fff" stop-opacity=".157"/><stop offset="1" stop-color="#fff" stop-opacity=".392"/></linearGradient><linearGradient id="e"><stop offset="0" stop-color="#f4f4f4"/><stop offset="1" stop-color="#dbdbdb"/></linearGradient><linearGradient id="f"><stop offset="0" stop-color="#a0a0a0"/><stop offset="1" stop-color="#bebebe"/></linearGradient><linearGradient gradientTransform="matrix(.25714 0 0 .239 -.17 -.103)" gradientUnits="userSpaceOnUse" xlink:href="#e" id="k" y2="47.013" x2="25.132" y1=".985" x1="25.132"/><linearGradient gradientTransform="matrix(.20764 0 0 .22368 15.106 -.37)" gradientUnits="userSpaceOnUse" xlink:href="#f" id="l" y2="2.906" x2="-51.786" y1="50.786" x1="-51.786"/><linearGradient y2="3256.79" x2="2100.578" y1="3215.147" x1="2100.578" gradientTransform="matrix(.51817 0 0 .361 -1079.953 -1160.217)" gradientUnits="userSpaceOnUse" id="q" xlink:href="#g"/><linearGradient id="g"><stop offset="0" stop-color="#64baff"/><stop offset="1" stop-color="#3689e6"/></linearGradient><linearGradient xlink:href="#h" id="r" gradientUnits="userSpaceOnUse" gradientTransform="matrix(.29115 0 0 .32302 2.122 -5.26)" x1="29.556" y1="28.447" x2="26.135" y2="34.107"/><linearGradient id="h"><stop offset="0" stop-color="#fff"/><stop offset=".004" stop-color="#fff" stop-opacity=".235"/><stop offset=".539" stop-color="#fff" stop-opacity=".157"/><stop offset="1" stop-color="#fff" stop-opacity=".392"/></linearGradient><linearGradient y2="23.025" x2="-3.707" y1="39.159" x1="-3.707" gradientTransform="matrix(.49412 0 0 .49434 11.832 -6.382)" gradientUnits="userSpaceOnUse" id="s" xlink:href="#i"/><linearGradient id="i"><stop offset="0" stop-color="#fff"/><stop offset=".373" stop-color="#fff" stop-opacity=".235"/><stop offset=".75" stop-color="#fff" stop-opacity=".157"/><stop offset="1" stop-color="#fff" stop-opacity=".392"/></linearGradient><linearGradient xlink:href="#j" id="t" gradientUnits="userSpaceOnUse" gradientTransform="matrix(.606 0 0 .606 12.72 -9.875)" x1="-6.388" y1="22.767" x2="-6.388" y2="39.523"/><linearGradient id="j"><stop offset="0" stop-color="#fff"/><stop offset=".5" stop-color="#fff" stop-opacity=".235"/><stop offset=".75" stop-color="#fff" stop-opacity=".157"/><stop offset="1" stop-color="#fff" stop-opacity=".392"/></linearGradient></defs><path d="M1.5.5h9v11h-9V.5z" fill="url(#k)" stroke="url(#l)" stroke-linejoin="round"/><path d="M9.5 10.5h-7v-9h7z" fill="none" stroke="url(#m)" stroke-linecap="round"/><path d="M4 2h7v10H4V2z" opacity=".05"/><path d="M5.5 3.5h9v11h-9v-11z" fill="url(#n)" stroke="url(#o)" stroke-linejoin="round"/><path d="M13.5 13.5h-7v-9h7z" fill="none" stroke="url(#p)" stroke-linecap="round"/><g transform="matrix(.6314 0 0 .6314 6.358 5.714)"><path d="M8.5.5v2.02A6.5 6.5 0 0 0 8 2.5 6.5 6.5 0 0 0 1.5 9 6.5 6.5 0 0 0 8 15.5a6.5 6.5 0 0 0 6.48-6h-3.02a3.5 3.5 0 0 1-3.46 3A3.5 3.5 0 0 1 4.5 9 3.5 3.5 0 0 1 8 5.5a3.5 3.5 0 0 1 .5.04V7.5l5-3.5z" opacity=".99" fill="url(#q)"/><path d="M8.5.5v2.02A6.5 6.5 0 0 0 8 2.5 6.5 6.5 0 0 0 1.5 9 6.5 6.5 0 0 0 8 15.5a6.5 6.5 0 0 0 6.48-6h-3.02a3.5 3.5 0 0 1-3.46 3A3.5 3.5 0 0 1 4.5 9 3.5 3.5 0 0 1 8 5.5a3.5 3.5 0 0 1 .5.04V7.5l5-3.5z" opacity=".5" fill="none" stroke="#002e99" stroke-width="1.584" stroke-linecap="round" stroke-linejoin="round"/><path overflow="visible" d="M9.496 5.578v-3.13l2.222 1.56z" style="isolation:auto;mix-blend-mode:normal" color="#000" opacity=".5" solid-color="#000000" fill="none" stroke="url(#r)" stroke-width="1.584"/><path d="M12.32 10.176a4.49 4.49 0 0 1-5.392 3.202 4.49 4.49 0 0 1-3.33-5.315A4.49 4.49 0 0 1 8.83 4.605" opacity=".5" fill="none" stroke="url(#s)" stroke-width="1.584"/><ellipse cx="8" cy="9.212" rx="4" ry="2.472" opacity=".99" fill="none"/><path d="M13.386 10.154A5.506 5.504 0 0 1 6.94 14.4a5.506 5.504 0 0 1-4.357-6.372 5.506 5.504 0 0 1 6.3-4.46" opacity=".5" fill="none" stroke="url(#t)" stroke-width="1.584"/></g></svg>
